!!!OTL: Maria hilf (2-10) S. 39
!!!id: P0883
**kern
*clefG2
*k[b-]
*F:
{8f
=1
8f
4.f
8g
4a
8a
=2yy
8cc
=3
4g
8g
8a
4f}
=4
{8a
8b-
=5
4cc
8dd
8cc
4b-
8cc
8b-
=6
4a}
2r
=7
{8f
8g
=8
4a
8a
8cc
4g
8g
8a
=9
4f}
2r
=10
{8a
8b-
=11
4cc
8dd
8cc
4b-
8cc
8b-
=12
4a}
2.r
=13
{4cc
4cc
4dd
4cc
=14
8b-
8a
8b-
8dd
4cc}
4r
=15
{4a
8a
8cc
4g
4r
=16
8f
8e
4d
4c}
4r
=17
{8f
8e
8f
8g
8a
8g
8a
8b-
=18
4cc
8cc
8b-
4a}
4r
==
*-
!!!minrhy: 8
!!!meters: 4/4 ]  ZZ[7
!!!cut: Maria hilf (2-10) S. 39
!!!reg: Lothringen
!!!trd: PINCK, Louis: Verklingende Weisen, Bd 2, Metz 1928
!!!rhy1:   X_.XX_XX  X_XXX_
!!!rhy2: XX  X_XXX_XX  X_0__
!!!key: P0883  08  F 4/4 ]  ZZ[7
!!!mod: HEPTATONIK IONISCH]  AMBITUS[9
!!!kad: 13135-53
!!!akz: 1321_543_321_543_5645_321-5_1353_
!!!fot: 'a__b__a__b__c__bs'd__
!!!for: 'a__b__b__bv_c__d__e__
!!!fok: '^__^__^__^__V__^d_^a_
!! PHRAS[GEMISCHTTAKTIG]
!!!fkt: geistliche, religiöse Lieder
!! LOTH VKL
!! PR[13] 2K[13] 2G[23] 3K[0] 3G[3] 4A[3] 4Ü[0] 5A[0] 6K[0] 6G[0]
!! 7K[0] 7G[0] 8A[0] MEHR[0] SI[43] ABS[30] SR[37] SP[7]
!! ST[8] 2k[10] 2g[27] 3k[3] 3g[0] 4d[3] 4ü[0] 5d[0] 6k[0] 6g[0]
!! 7k[0] 7g[0] 8d[0] mehr[0] si[43] dm[0] sr[37] sp[7]
!! 1F[21] 2F[70] 3F[6] 4F[0] LF[0] 2P[3] 3P[0] 4P[0] TRI[0] DF[4] AB[33]
!! TF[0] U3K[0] U3[0] U4[0] U4Ü[0] U5[10] U6K[0] U6[10] U7K[6] U7[6]
!! N1[29] N2K[0] N2[26] N3K[0] N3[13] N4[0] N4Ü[0] N5[0] N6K[0] N6[0]
!!!n7k: 0] N7[0] O1[0] O2K[0] O2[0] O3K[0] O3[0] HÖ[0
